symbolic/64x64/apps/gnome-klotski.svg

<svg xmlns="http://www.w3.org/2000/svg" width="64" height="64" version="1"><path style="opacity:.2" d="M10 23v2c0 1.108.892 2 2 2h12c1.108 0 2-.892 2-2v-2c0 1.108-.892 2-2 2H12c-1.108 0-2-.892-2-2zm22 8v2h28v-2H32zm6 20v2c0 1.108.892 2 2 2h12c1.108 0 2-.892 2-2v-2c0 1.108-.892 2-2 2H40c-1.108 0-2-.892-2-2zM4 56v2c0 1.662 1.338 3 3 3h25v-2H7c-1.662 0-3-1.338-3-3z"/><path style="fill:#f4c165" d="M32 4h25c1.662 0 3 1.338 3 3v25H32z"/><path style="fill:#f2ae37" d="M32 60H7c-1.662 0-3-1.338-3-3V32h28z"/><rect style="fill:#6192f5" width="16" height="16" x="38" y="38" rx="2" ry="2"/><rect style="fill:#3775f2" width="16" height="16" x="10" y="10" rx="2" ry="2"/><path style="opacity:.2;fill:#fff" d="M32 4v1h25c1.662 0 3 1.338 3 3V7c0-1.662-1.338-3-3-3H32zm-20 6c-1.108 0-2 .892-2 2v1c0-1.108.892-2 2-2h12c1.108 0 2 .892 2 2v-1c0-1.108-.892-2-2-2H12zM4 32v1h28v-1H4zm36 6c-1.108 0-2 .892-2 2v1c0-1.108.892-2 2-2h12c1.108 0 2 .892 2 2v-1c0-1.108-.892-2-2-2H40z"/></svg>

<svg xmlns="http://www.w3.org/2000/svg" width="64" height="64" version="1">
 <path style="opacity:0.2" d="m 10,23 0,2 c 0,1.108 0.892,2 2,2 l 12,0 c 1.108,0 2,-0.892 2,-2 l 0,-2 c 0,1.108 -0.892,2 -2,2 l -12,0 c -1.108,0 -2,-0.892 -2,-2 z m 22,8 0,2 28,0 0,-2 -28,0 z m 6,20 0,2 c 0,1.108 0.892,2 2,2 l 12,0 c 1.108,0 2,-0.892 2,-2 l 0,-2 c 0,1.108 -0.892,2 -2,2 l -12,0 c -1.108,0 -2,-0.892 -2,-2 z m -34,5 0,2 c 0,1.662 1.338,3 3,3 l 25,0 0,-2 -25,0 C 5.338,59 4,57.662 4,56 Z"/>
 <path style="fill:#f4c165" d="m 32,4 25,0 c 1.662,0 3,1.338 3,3 l 0,25 -28,0 z"/>
 <path style="fill:#f2ae37" d="M 32,60 7,60 C 5.338,60 4,58.662 4,57 l 0,-25 28,0 z"/>
 <rect style="fill:#6192f5" width="16" height="16" x="38" y="38" rx="2" ry="2"/>
 <rect style="fill:#3775f2" width="16" height="16" x="10" y="10" rx="2" ry="2"/>
 <path style="opacity:0.2;fill:#ffffff" d="M 32 4 L 32 5 L 57 5 C 58.662 5 60 6.338 60 8 L 60 7 C 60 5.338 58.662 4 57 4 L 32 4 z M 12 10 C 10.892 10 10 10.892 10 12 L 10 13 C 10 11.892 10.892 11 12 11 L 24 11 C 25.108 11 26 11.892 26 13 L 26 12 C 26 10.892 25.108 10 24 10 L 12 10 z M 4 32 L 4 33 L 32 33 L 32 32 L 4 32 z M 40 38 C 38.892 38 38 38.892 38 40 L 38 41 C 38 39.892 38.892 39 40 39 L 52 39 C 53.108 39 54 39.892 54 41 L 54 40 C 54 38.892 53.108 38 52 38 L 40 38 z"/>
</svg>
